brandFactory_export/1.Light/Diente muela _1Light.svg

<?xml version="1.0" encoding="UTF-8"?>
<svg width="24px" height="24px" viewBox="0 0 24 24" version="1.1" xmlns="http://www.w3.org/2000/svg" xmlns:xlink="http://www.w3.org/1999/xlink">
    <title>1.Light/Diente muela _1Light</title>
    <g id="Symbols" stroke="none" stroke-width="1" fill="none" fill-rule="evenodd">
        <g id="1.Light/Diente-muela-_1Light" fill="#5CB615" fill-rule="nonzero">
            <path d="M22.3764706,8.05378151 C21.8957983,10.0571429 21.0319328,12.1445378 19.8084034,14.2621849 L19.6941176,14.6453782 C19.6302521,14.907563 19.5731092,15.1462185 19.5193277,15.3445378 C19.2806723,16.2857143 19.005042,17.1630252 18.6789916,18.0235294 C18.1647059,19.4117647 17.7546218,20.3092437 17.0655462,21.5630252 L16.9983193,21.6773109 C16.897479,21.8420168 16.7327731,22.1344538 16.5714286,22.3294118 C16.4571429,22.4739496 16.3294118,22.5781513 16.1983193,22.6352941 L16.0638655,22.6319328 C15.9361345,22.5815126 15.8084034,22.4773109 15.6907563,22.3260504 C15.5462185,22.1478992 15.3647059,21.8554622 15.2638655,21.6806723 L15.2,21.5563025 C15.1361345,21.4420168 14.9647059,20.9915966 14.8,20.5546218 C13.5865546,17.3512605 12.789916,15.7243697 11.8084034,15.7243697 C10.8302521,15.7243697 10.0302521,17.3512605 8.81680672,20.5546218 C8.65210084,20.9915966 8.48067227,21.4420168 8.41680672,21.5563025 L8.35294118,21.6672269 L8.35294118,21.6806723 C8.25210084,21.8554622 8.07058824,22.1512605 7.92268908,22.3327731 C7.80840336,22.4773109 7.68067227,22.5815126 7.54957983,22.6386555 L7.41512605,22.6352941 C7.28739496,22.5848739 7.15966387,22.4806723 7.04201681,22.3294118 C6.88739496,22.1411765 6.71932773,21.8521008 6.62184874,21.6840336 L6.56470588,21.589916 C5.86218487,20.312605 5.45210084,19.4151261 4.93781513,18.0235294 C4.61176471,17.1596639 4.3394958,16.2857143 4.09747899,15.3378151 C4.04369748,15.1394958 3.98655462,14.897479 3.91932773,14.6252101 L3.86218487,14.389916 L3.80840336,14.2588235 C2.58487395,12.1445378 1.7210084,10.0571429 1.24033613,8.05042017 C0.638655462,5.53613445 1.11596639,3.46554622 2.58151261,2.22184874 C3.42857143,1.49579832 4.58823529,1.05882353 5.85546218,0.994957983 C7.2302521,0.921008403 8.62857143,1.26722689 9.93277311,1.98991597 C10.4067227,2.25546218 10.8907563,2.53109244 11.4184874,2.84033613 C11.4890756,2.88403361 11.6168067,2.96134454 11.8084034,2.96134454 C11.9932773,2.96134454 12.1142857,2.88739496 12.1882353,2.84369748 C12.7193277,2.52773109 13.2033613,2.25546218 13.6739496,1.98991597 C14.9848739,1.26386555 16.3966387,0.917647059 17.7546218,0.994957983 C19.0184874,1.05882353 20.1815126,1.49243697 21.0319328,2.22184874 C22.5008403,3.46890756 22.9747899,5.5394958 22.3764706,8.05378151 M21.6840336,1.47563025 C20.6722689,0.605042017 19.2941176,0.087394958 17.8117647,0.0134453782 C16.2588235,-0.0705882353 14.6689076,0.315966387 13.1932773,1.13277311 C12.7563025,1.37815126 12.3159664,1.62689076 11.8084034,1.92605042 C11.3176471,1.63697479 10.8672269,1.38151261 10.4235294,1.13277311 C8.9512605,0.315966387 7.36806723,-0.0638655462 5.81176471,0.0134453782 C4.32605042,0.087394958 2.9512605,0.608403361 1.94285714,1.47563025 C0.181512605,2.97142857 -0.410084034,5.39159664 0.282352941,8.28571429 C0.783193277,10.3630252 1.67058824,12.5176471 2.9210084,14.6957983 L2.96134454,14.8605042 C3.02857143,15.1394958 3.08907563,15.394958 3.14285714,15.589916 C3.38823529,16.5647059 3.67394958,17.4756303 4.01008403,18.3697479 C4.54117647,19.8084034 4.96806723,20.7428571 5.71092437,22.087395 L5.77142857,22.1848739 C5.88907563,22.3831933 6.08403361,22.712605 6.26890756,22.9411765 C6.49411765,23.2268908 6.75966387,23.4319328 7.0789916,23.5596639 C7.15630252,23.5865546 7.27394958,23.6235294 7.42521008,23.6235294 L7.56302521,23.6235294 C7.70420168,23.6235294 7.82184874,23.5865546 7.92605042,23.5495798 C8.21848739,23.4319328 8.48403361,23.2268908 8.70588235,22.9478992 C8.94117647,22.6588235 9.20672269,22.1983193 9.28403361,22.0605042 L9.34453782,21.9495798 L9.34453782,21.9294118 C9.43529412,21.7378151 9.55630252,21.4184874 9.75462185,20.9008403 C10.1277311,19.912605 11.2672269,16.9109244 11.7848739,16.7058824 C12.3663866,16.9109244 13.502521,19.912605 13.8789916,20.9008403 C14.0739496,21.4117647 14.194958,21.7277311 14.2823529,21.9193277 L14.3462185,22.0571429 C14.4201681,22.194958 14.6890756,22.6521008 14.9176471,22.9378151 C15.1428571,23.2235294 15.4084034,23.4285714 15.7277311,23.5563025 C15.805042,23.5831933 15.9226891,23.6201681 16.0739496,23.6201681 L16.2117647,23.6201681 C16.3529412,23.6201681 16.4705882,23.5831933 16.5747899,23.5462185 C16.8672269,23.4285714 17.1327731,23.2235294 17.3546218,22.9445378 C17.5462185,22.7092437 17.7411765,22.3764706 17.8588235,22.1815126 L17.9327731,22.0605042 C18.6621849,20.7361345 19.0890756,19.805042 19.6201681,18.3663866 C19.9563025,17.4722689 20.2420168,16.5647059 20.4907563,15.589916 C20.5445378,15.3915966 20.6016807,15.1428571 20.6689076,14.8739496 L20.712605,14.6890756 C21.9663866,12.5109244 22.8537815,10.3563025 23.3512605,8.2789916 C24.0336134,5.38823529 23.4420168,2.97142857 21.6840336,1.47563025" id="Diente-muela-_1Light"></path>
        </g>
    </g>
</svg>

<svg width="24" height="24" viewBox="0 0 24 24" xmlns="http://www.w3.org/2000/svg"><path d="M22.376 8.054c-.48 2.003-1.344 4.09-2.568 6.208l-.114.383c-.064.263-.12.501-.175.7a24.452 24.452 0 01-.84 2.679 23.518 23.518 0 01-1.613 3.539l-.068.114c-.1.165-.265.457-.427.652a1.002 1.002 0 01-.373.306l-.134-.003a.929.929 0 01-.373-.306 5.772 5.772 0 01-.427-.645l-.064-.125c-.064-.114-.235-.564-.4-1.001-1.213-3.204-2.01-4.83-2.992-4.83-.978 0-1.778 1.626-2.991 4.83-.165.437-.336.887-.4 1.001l-.064.111v.014c-.1.174-.282.47-.43.652a1.002 1.002 0 01-.373.306l-.135-.004a.929.929 0 01-.373-.306 5.355 5.355 0 01-.42-.645l-.057-.094a23.462 23.462 0 01-1.627-3.566 25.085 25.085 0 01-.84-2.686c-.054-.199-.111-.44-.179-.713l-.057-.235-.054-.131C2.585 12.145 1.721 10.057 1.24 8.05.64 5.536 1.116 3.466 2.582 2.222c.847-.726 2.006-1.163 3.273-1.227 1.375-.074 2.774.272 4.078.995.474.265.958.541 1.485.85.071.044.199.121.39.121.185 0 .306-.074.38-.117.531-.316 1.015-.589 1.486-.854 1.31-.726 2.723-1.072 4.08-.995 1.264.064 2.428.497 3.278 1.227 1.469 1.247 1.943 3.317 1.344 5.832m-.692-6.578C20.672.605 19.294.087 17.812.013c-1.553-.084-3.143.303-4.619 1.12-.437.245-.877.494-1.385.793-.49-.289-.94-.544-1.384-.793C8.95.316 7.368-.064 5.812.013c-1.486.074-2.86.595-3.87 1.463C.183 2.97-.41 5.392.283 8.286c.501 2.077 1.389 4.232 2.639 6.41l.04.165c.068.278.128.534.182.729.245.975.53 1.886.867 2.78a24.086 24.086 0 001.7 3.717l.061.098c.118.198.313.528.498.756.225.286.49.49.81.619.077.027.195.064.346.064h.138c.141 0 .259-.037.363-.074.292-.118.558-.323.78-.602.235-.29.5-.75.578-.887l.06-.111v-.02c.091-.192.212-.512.41-1.03.374-.987 1.513-3.99 2.03-4.194.582.205 1.719 3.207 2.095 4.195.195.51.316.827.403 1.018l.064.138c.074.138.343.595.572.88.225.287.49.492.81.62.077.026.195.063.346.063h.138c.14 0 .259-.037.363-.074.292-.117.558-.322.78-.601.191-.236.386-.569.504-.763l.074-.121a24.17 24.17 0 001.687-3.695c.336-.894.622-1.801.87-2.776.055-.198.112-.447.179-.716l.044-.185c1.253-2.178 2.14-4.333 2.638-6.41.683-2.89.091-5.308-1.667-6.803" fill="#5CB615" fill-rule="nonzero"/></svg>
